symbols/web/wine_bar/materialsymbolsoutlined/wine_bar_wght200gradN25fill1_48px.svg

<svg xmlns="http://www.w3.org/2000/svg" height="48" width="48"><path d="M17.4 39.95v-1.5h5.85V28.9q-4.6-.65-7.025-3.725Q13.8 22.1 13.8 18V8h20.45v10q0 4.1-2.45 7.175t-7 3.725v9.55h5.8v1.5ZM15.3 17.2h17.45V9.5H15.3Z"/></svg>

<svg xmlns="http://www.w3.org/2000/svg" height="48" width="48"><path d="M17.4 39.95V38.45H23.25V28.9Q18.65 28.25 16.225 25.175Q13.8 22.1 13.8 18V8H34.25V18Q34.25 22.1 31.8 25.175Q29.35 28.25 24.8 28.9V38.45H30.6V39.95ZM15.3 17.2H32.75V9.5H15.3Z"/></svg>
